!!!COM:	Josquin des Pres
**kern	**kern
*part2	*part1
*staff2	*staff1
*clefF4	*clefGv2
*k[]	*k[]
*M2/1	*M2/1
=1-	=1-
[0E	0B
=2	=2
0E]	1c
.	1B
=3	=3
0AA	1.c
.	4B
.	4A
=4	=4
[0E	1c
.	[1B
=5	=5
0E]	1B]
.	[1c
=6	=6
1F	2c]
.	4B
.	4A
1E	1c
=7	=7
0F	2d
.	1c
.	4B
.	4A
=8	=8
1.E	1.G
2F	2A
=9	=9
1G	1B
1A	[1c
=10	=10
1AA	2c]
.	4B
.	4A
[1E	2c
.	2B
=11	=11
2E]	1.e
2C	.
1G	.
.	2d
=12	=12
1A	1c
1G	1B
=13	=13
1A	1.e
1E	.
.	2d
=14	=14
2r	2c
2E	2B
2F	2A
2E	2G
=15	=15
2F	1d
2D	.
2F	2.c
[2E	.
.	4B
=16	=16
2E]	2B
2C	1A
1BB	.
.	2G
=17	=17
0AA	0A
==	==
*-	*-
